X:1
T:The Camptown Races
M:4/4
L:1/4
K:C
 E| G G E G| A G E2| E D2 z| E D2 G| G G E G| A G E2| D3/2 D/2 E D|\
 C3 z| C3/2 C/2 E G| c3 z| A3/2 A/2 c A| G3 E| G G E/2E/2 G/2G/2| A G E2|\
 D E/2F/2 E D/2D/2| C3||
